icons/tasklist-16.svg

<svg width="16" height="16" viewBox="0 0 16 16" fill="none" xmlns="http://www.w3.org/2000/svg">
<path fill-rule="evenodd" clip-rule="evenodd" d="M2.5 3.5V6.5H5.5V3.5H2.5ZM2 2C1.44772 2 1 2.44772 1 3V7C1 7.55228 1.44772 8 2 8H6C6.55228 8 7 7.55228 7 7V3C7 2.44772 6.55228 2 6 2H2ZM6.65533 10.5947C6.94822 10.8876 6.94822 11.3624 6.65533 11.6553L4.03033 14.2803C3.73744 14.5732 3.26256 14.5732 2.96967 14.2803L1.46967 12.7803C1.17678 12.4874 1.17678 12.0126 1.46967 11.7197C1.76256 11.4268 2.23744 11.4268 2.53033 11.7197L3.5 12.6893L5.59467 10.5947C5.88756 10.3018 6.36244 10.3018 6.65533 10.5947ZM9.75 2.5C9.33579 2.5 9 2.83579 9 3.25C9 3.66421 9.33579 4 9.75 4H15.25C15.6642 4 16 3.66421 16 3.25C16 2.83579 15.6642 2.5 15.25 2.5H9.75ZM9.75 7.5C9.33579 7.5 9 7.83579 9 8.25C9 8.66421 9.33579 9 9.75 9H15.25C15.6642 9 16 8.66421 16 8.25C16 7.83579 15.6642 7.5 15.25 7.5H9.75ZM9.75 12.5C9.33579 12.5 9 12.8358 9 13.25C9 13.6642 9.33579 14 9.75 14H15.25C15.6642 14 16 13.6642 16 13.25C16 12.8358 15.6642 12.5 15.25 12.5H9.75Z" fill="#24292F"/>
</svg>

<svg xmlns="http://www.w3.org/2000/svg" width="16" height="16" viewBox="0 0 16 16"><path fill-rule="evenodd" d="M2.5 3.5v3h3v-3h-3zM2 2a1 1 0 00-1 1v4a1 1 0 001 1h4a1 1 0 001-1V3a1 1 0 00-1-1H2zm4.655 8.595a.75.75 0 010 1.06L4.03 14.28a.75.75 0 01-1.06 0l-1.5-1.5a.75.75 0 111.06-1.06l.97.97 2.095-2.095a.75.75 0 011.06 0zM9.75 2.5a.75.75 0 000 1.5h5.5a.75.75 0 000-1.5h-5.5zm0 5a.75.75 0 000 1.5h5.5a.75.75 0 000-1.5h-5.5zm0 5a.75.75 0 000 1.5h5.5a.75.75 0 000-1.5h-5.5z"/></svg>
